projects/oblique/icons/ShoppingCart.svg

<?xml version="1.0" encoding="UTF-8"?><svg id="a" xmlns="http://www.w3.org/2000/svg" viewBox="0 0 24 24"><path d="M17.75363,14.34285c.24707,0,.47754-.12109.61719-.32422l4.24609-6.15918c.1582-.22949.17676-.52734.04688-.77441s-.38574-.40137-.66406-.40137H6.99777v-2.68359c0-.41406-.33594-.75-.75-.75H2.0007v1.5h3.49707v11.84277c0,.41406.33594.75.75.75h13.93945v-1.5H6.99777v-1.5h10.75586ZM7.0007,8.18368h13.57129l-3.21191,4.65918H7.0007v-4.65918ZM6.2507,17.98739c-.76172,0-1.38184.61914-1.38184,1.38086s.62012,1.38184,1.38184,1.38184,1.38184-.62012,1.38184-1.38184-.62012-1.38086-1.38184-1.38086ZM6.13254,19.36825c0-.06543.05273-.11816.11816-.11816s.11816.05273.11816.11816c0,.13086-.23633.13086-.23633,0ZM17.75363,17.98739c-.76172,0-1.38184.61914-1.38184,1.38086s.62012,1.38184,1.38184,1.38184,1.38184-.62012,1.38184-1.38184-.62012-1.38086-1.38184-1.38086ZM17.63547,19.36825c0-.06543.05273-.11816.11816-.11816s.11816.05273.11816.11816c0,.13086-.23633.13086-.23633,0Z"/></svg>

<svg xmlns="http://www.w3.org/2000/svg" viewBox="0 0 24 24"><title>ShoppingCart</title><path d="M17.75363,14.34285a.74817.74817,0,0,0,.61719-.32421l4.24609-6.15918a.7498.7498,0,0,0-.61718-1.17578H6.99777V4.00008a.7502.7502,0,0,0-.75-.75H2.0007v1.5H5.49777V16.59285a.75019.75019,0,0,0,.75.75H20.18723v-1.5H6.99777v-1.5ZM7.0007,8.18368H20.572l-3.21191,4.65917H7.0007Z" fill="#171717"/><path d="M6.2507,17.98739a1.38135,1.38135,0,1,0,1.38184,1.38086A1.38285,1.38285,0,0,0,6.2507,17.98739Zm-.11816,1.38086a.11817.11817,0,1,1,.23633,0C6.36887,19.4991,6.13254,19.4991,6.13254,19.36825Z" fill="#171717"/><path d="M17.75363,17.98739a1.38135,1.38135,0,1,0,1.38184,1.38086A1.38285,1.38285,0,0,0,17.75363,17.98739Zm-.11816,1.38086a.11817.11817,0,1,1,.23633,0C17.8718,19.4991,17.63547,19.4991,17.63547,19.36825Z" fill="#171717"/></svg>
